X: 17
T:Utpick 
R:
S:The 
Z:Added by alf.
M:3/4
L:1/8
K:G
(3DEF|:G3ABd|AF2DED|EG2DC2|B,3ABd|
e4-ef|ed3BA|Bd4e|d2g2f2|e4ef|
ed3dA|B3d(3BAG|E4ED|C3DEG|
DF2DED|EG2DC2|[1 B,4(3DEF:|[2  B,3ABd||
eB4A|B4Be|dB4^A|B4B^A|
=A4AB|AG3ED|EG3GF|G2A2Bd|
e4B2|B4Be|dB4c|B2B2^A2|
A4-AB|AG3ED|EG4G| FEDEFD|]
